packages/radix-icons/twoTone/15/caret-right.svg

<svg width="15" height="15" fill="none" xmlns="http://www.w3.org/2000/svg">
  <path
    fill-rule="evenodd"
    clip-rule="evenodd"
    d="M6.54301 4.54292C6.93354 4.1524 7.5667 4.1524 7.95723 4.54292L10.2072 6.79292C10.3948 6.98046 10.5001 7.23481 10.5001 7.50003C10.5001 7.76525 10.3948 8.0196 10.2072 8.20714L7.95723 10.4571C7.5667 10.8477 6.93354 10.8477 6.54301 10.4571C6.15249 10.0666 6.15249 9.43345 6.54302 9.04292L8.08591 7.50003L6.54301 5.95714C6.15249 5.56661 6.15249 4.93345 6.54301 4.54292Z"
    fill="currentColor"
    opacity=".2"
  />
  <path
    fill-rule="evenodd"
    clip-rule="evenodd"
    d="M6.93194 4.93184C7.10767 4.7561 7.3926 4.7561 7.56833 4.93184L9.81833 7.18184C9.90272 7.26623 9.95013 7.38069 9.95013 7.50003C9.95013 7.61938 9.90272 7.73384 9.81833 7.81823L7.56833 10.0682C7.3926 10.244 7.10767 10.244 6.93194 10.0682C6.7562 9.8925 6.7562 9.60757 6.93194 9.43184L8.86374 7.50003L6.93194 5.56823C6.7562 5.3925 6.7562 5.10757 6.93194 4.93184Z"
    fill="currentColor"
  />
</svg>

<svg width="15" height="15" fill="none" xmlns="http://www.w3.org/2000/svg">
  <path
    fill-rule="evenodd"
    clip-rule="evenodd"
    d="M6.543 4.543a1 1 0 011.414 0l2.25 2.25a1 1 0 010 1.414l-2.25 2.25a1 1 0 11-1.414-1.414L8.086 7.5 6.543 5.957a1 1 0 010-1.414z"
    fill="currentColor"
    opacity=".2"
  />
  <path
    fill-rule="evenodd"
    clip-rule="evenodd"
    d="M6.932 4.932a.45.45 0 01.636 0l2.25 2.25a.45.45 0 010 .636l-2.25 2.25a.45.45 0 11-.636-.636L8.864 7.5 6.932 5.568a.45.45 0 010-.636z"
    fill="currentColor"
  />
</svg>
